picto/toilet-seat-cleaner.svg

<svg class="color-immutable" width="24" height="24" viewBox="0 0 24 24" fill="none" xmlns="http://www.w3.org/2000/svg"><path d="M0 22.5V1.5C0 0.675 0.675 0 1.5 0H22.5C23.325 0 24 0.675 24 1.5V22.5C24 23.325 23.325 24 22.5 24H1.5C0.675 24 0 23.325 0 22.5Z" fill="#2D327D"/><path d="M4.53027 16.1015L2.9895 17.6423L6.33055 20.9833L7.87132 19.4425L4.53027 16.1015Z" fill="white"/><path d="M15.219 15.491C15.22 15.495 15.221 15.499 15.221 15.504C15.223 15.536 15.226 15.567 15.226 15.599C15.226 16.262 14.689 16.799 14.026 16.799H10.576V16.424H14.026C14.482 16.424 14.851 16.055 14.851 15.599C14.851 15.564 14.849 15.528 14.844 15.495C14.827 15.357 14.775 15.229 14.698 15.122C14.698 15.122 14.698 15.121 14.697 15.121C14.545 14.907 14.29 14.773 14.026 14.775H11.723C11.26 14.775 10.964 14.641 10.687 14.5C10.623 14.469 10.554 14.431 10.489 14.4C9.95397 14.131 9.36297 14.08 8.76597 14.08C8.12397 14.075 7.47197 14.217 6.92897 14.568C6.69297 14.716 6.46797 14.9 6.24697 15.125L5.15997 16.207L7.76097 18.808L8.26397 18.3L14.028 18.295C14.463 18.295 14.855 18.131 15.154 17.861L15.701 17.323L15.796 17.23L17.522 15.504C17.093 15.491 16.652 15.486 16.194 15.486C15.873 15.486 15.551 15.488 15.219 15.491Z" fill="white"/><path d="M17.595 12.712C15.126 12.234 11.763 12.218 9.62499 12.349C7.41099 12.486 6.21299 12.597 4.44299 12.909C5.28899 13.315 5.98099 13.73 6.64099 14.305C6.83299 14.176 7.03199 14.069 7.23999 13.983C7.69599 13.794 8.19599 13.705 8.76499 13.705C9.34699 13.705 10.027 13.748 10.657 14.065C10.722 14.095 10.791 14.133 10.856 14.165C11.118 14.299 11.348 14.4 11.722 14.4H14.026C14.515 14.402 14.937 14.698 15.122 15.119C15.213 15.118 15.303 15.117 15.393 15.117C15.66 15.115 15.926 15.113 16.192 15.113C16.765 15.113 17.326 15.12 17.882 15.144C18.916 15.187 19.936 15.288 20.999 15.505C19.558 14.028 18.77 13.457 17.595 12.712Z" fill="white"/><path d="M10.635 7.497C10.65 7.499 10.664 7.5 10.678 7.5C10.825 7.5 10.953 7.392 10.975 7.243C10.998 7.079 10.885 6.927 10.721 6.903C10.557 6.88 10.405 6.993 10.381 7.157C10.358 7.321 10.471 7.473 10.635 7.497Z" fill="white"/><path d="M10.917 5.54701C10.931 5.54901 10.946 5.55001 10.961 5.55001C11.107 5.55001 11.236 5.44201 11.257 5.29301C11.28 5.12901 11.167 4.97701 11.003 4.95301C10.839 4.93001 10.687 5.04301 10.663 5.20701C10.639 5.37101 10.752 5.52301 10.917 5.54701Z" fill="white"/><path d="M10.354 9.44701C10.368 9.44901 10.383 9.45001 10.397 9.45001C10.544 9.45001 10.672 9.34201 10.694 9.19301C10.717 9.02901 10.604 8.87701 10.44 8.85301C10.276 8.83001 10.124 8.94301 10.1 9.10701C10.077 9.27101 10.19 9.42301 10.354 9.44701Z" fill="white"/><path d="M13.301 6.90299C13.137 6.92499 13.021 7.07499 13.044 7.23999C13.064 7.39099 13.192 7.49999 13.34 7.49999C13.354 7.49999 13.367 7.49899 13.381 7.49699C13.545 7.47499 13.661 7.32399 13.638 7.15999C13.616 6.99599 13.465 6.87999 13.301 6.90299Z" fill="white"/><path d="M13.038 4.95301C12.874 4.97501 12.758 5.12501 12.781 5.29001C12.801 5.44101 12.929 5.55001 13.078 5.55001C13.091 5.55001 13.104 5.54901 13.118 5.54701C13.282 5.52501 13.398 5.37401 13.375 5.21001C13.353 5.04601 13.203 4.93001 13.038 4.95301Z" fill="white"/><path d="M13.563 8.85301C13.399 8.87501 13.283 9.02501 13.306 9.19001C13.326 9.34101 13.454 9.45001 13.602 9.45001C13.616 9.45001 13.629 9.44901 13.643 9.44701C13.807 9.42501 13.923 9.27401 13.9 9.11001C13.878 8.94601 13.728 8.83001 13.563 8.85301Z" fill="white"/><path d="M11.991 10.463C12.1567 10.463 12.291 10.3287 12.291 10.163C12.291 9.99732 12.1567 9.86301 11.991 9.86301C11.8253 9.86301 11.691 9.99732 11.691 10.163C11.691 10.3287 11.8253 10.463 11.991 10.463Z" fill="white"/><path d="M11.991 6.64001C12.1567 6.64001 12.291 6.50569 12.291 6.34001C12.291 6.17432 12.1567 6.04001 11.991 6.04001C11.8253 6.04001 11.691 6.17432 11.691 6.34001C11.691 6.50569 11.8253 6.64001 11.991 6.64001Z" fill="white"/><path d="M11.991 8.552C12.1567 8.552 12.291 8.41768 12.291 8.252C12.291 8.08631 12.1567 7.952 11.991 7.952C11.8253 7.952 11.691 8.08631 11.691 8.252C11.691 8.41768 11.8253 8.552 11.991 8.552Z" fill="white"/><path d="M12.816 3.6C12.9817 3.6 13.116 3.46569 13.116 3.3C13.116 3.13431 12.9817 3 12.816 3C12.6503 3 12.516 3.13431 12.516 3.3C12.516 3.46569 12.6503 3.6 12.816 3.6Z" fill="white"/><path d="M11.241 3.6C11.4067 3.6 11.541 3.46569 11.541 3.3C11.541 3.13431 11.4067 3 11.241 3C11.0753 3 10.941 3.13431 10.941 3.3C10.941 3.46569 11.0753 3.6 11.241 3.6Z" fill="white"/><path d="M11.991 4.725C12.1567 4.725 12.291 4.59069 12.291 4.425C12.291 4.25931 12.1567 4.125 11.991 4.125C11.8253 4.125 11.691 4.25931 11.691 4.425C11.691 4.59069 11.8253 4.725 11.991 4.725Z" fill="white"/></svg>

<svg class="color-immutable" width="24" height="24" viewBox="0 0 24 24" fill="none" xmlns="http://www.w3.org/2000/svg"><g clip-path="url(#a)"><path d="M0 22.5v-21C0 .675.675 0 1.5 0h21c.825 0 1.5.675 1.5 1.5v21c0 .825-.675 1.5-1.5 1.5h-21C.675 24 0 23.325 0 22.5Z" fill="#2D327D"/><path d="m4.53 16.102-1.54 1.54 3.34 3.341 1.541-1.54-3.34-3.341ZM15.219 15.491a.05.05 0 0 1 .002.013c.002.032.005.063.005.095a1.2 1.2 0 0 1-1.2 1.2h-3.45v-.375h3.45a.825.825 0 0 0 .672-1.302l-.001-.001a.826.826 0 0 0-.671-.346h-2.303c-.463 0-.759-.134-1.036-.275-.064-.031-.133-.069-.198-.1-.535-.269-1.126-.32-1.723-.32-.642-.005-1.294.137-1.837.488a3.748 3.748 0 0 0-.682.557L5.16 16.207l2.601 2.601.503-.508 5.764-.005a1.67 1.67 0 0 0 1.126-.434l.547-.538.095-.093 1.726-1.726c-.429-.013-.87-.018-1.328-.018-.321 0-.643.002-.975.005Z" fill="#fff"/><path d="M17.595 12.712c-2.469-.478-5.832-.494-7.97-.363-2.214.137-3.412.248-5.182.56.846.406 1.538.821 2.198 1.396a3.4 3.4 0 0 1 .599-.322c.456-.189.956-.278 1.525-.278.582 0 1.262.043 1.892.36.065.03.134.068.199.1.262.134.492.235.866.235h2.304c.489.002.911.298 1.096.719l.271-.002c.267-.002.533-.004.799-.004.573 0 1.134.007 1.69.031 1.034.043 2.054.144 3.117.361-1.441-1.477-2.229-2.048-3.404-2.793ZM10.635 7.497a.3.3 0 0 0 .34-.254.3.3 0 0 0-.594-.086.3.3 0 0 0 .254.34ZM10.917 5.547a.3.3 0 1 0 .086-.594.3.3 0 0 0-.086.594ZM10.354 9.447a.3.3 0 0 0 .34-.254.3.3 0 0 0-.594-.086.3.3 0 0 0 .254.34ZM13.301 6.903a.298.298 0 0 0-.257.337.299.299 0 0 0 .337.257.299.299 0 1 0-.08-.594ZM13.038 4.953a.298.298 0 0 0-.257.337.299.299 0 0 0 .337.257.299.299 0 0 0 .257-.337.298.298 0 0 0-.337-.257ZM13.563 8.853a.298.298 0 0 0-.257.337.299.299 0 0 0 .337.257.299.299 0 0 0 .257-.337.298.298 0 0 0-.337-.257ZM11.991 10.463a.3.3 0 1 0 0-.6.3.3 0 0 0 0 .6ZM11.991 6.64a.3.3 0 1 0 0-.6.3.3 0 0 0 0 .6ZM11.991 8.552a.3.3 0 1 0 0-.6.3.3 0 0 0 0 .6ZM12.816 3.6a.3.3 0 1 0 0-.6.3.3 0 0 0 0 .6ZM11.241 3.6a.3.3 0 1 0 0-.6.3.3 0 0 0 0 .6ZM11.991 4.725a.3.3 0 1 0 0-.6.3.3 0 0 0 0 .6Z" fill="#fff"/></g><defs><clipPath id="a"><path fill="#fff" d="M0 0h24v24H0z"/></clipPath></defs></svg>
